material/.icons/material/table-eye-off.svg

<svg xmlns="http://www.w3.org/2000/svg" viewBox="0 0 24 24"><path d="M12 8.8L6.2 3H18c1.1 0 2 .9 2 2v7.59c-.93-.38-1.94-.59-3-.59-.55 0-1.09.07-1.62.18L14.2 11H18V7h-6v1.8m5.09 5.09l5.22 5.22c.27-.38.51-.79.69-1.23-.93-2.31-3.22-3.96-5.91-3.99m5.02 7.57l-1.27 1.27-1.34-1.36c-.79.32-1.62.51-2.5.51-2.73 0-5.06-1.66-6-4a6.344 6.344 0 012.21-2.78l-1.28-1.28c-.74.6-1.4 1.32-1.93 2.15V13H4v4h5.42c-.16.32-.3.66-.42 1 .12.34.26.68.42 1H4c-1.1 0-2-.9-2-2V5c0-.32.08-.62.22-.89L1.11 3l1.28-1.27 19.72 19.73M9.11 11l-4-4H4v4h5.11m9.07 9.07l-3.37-3.37c-.2.35-.31.75-.31 1.18a2.5 2.5 0 002.5 2.5c.43 0 .83-.11 1.18-.31z"/></svg>

<?xml version="1.0" encoding="UTF-8"?><!DOCTYPE svg PUBLIC "-//W3C//DTD SVG 1.1//EN" "http://www.w3.org/Graphics/SVG/1.1/DTD/svg11.dtd"><svg xmlns="http://www.w3.org/2000/svg" xmlns:xlink="http://www.w3.org/1999/xlink" version="1.1" id="mdi-table-eye-off" width="24" height="24" viewBox="0 0 24 24"><path d="M12 8.8L6.2 3H18C19.1 3 20 3.9 20 5V12.59C19.07 12.21 18.06 12 17 12C16.45 12 15.91 12.07 15.38 12.18L14.2 11H18V7H12V8.8M17.09 13.89L22.31 19.11C22.58 18.73 22.82 18.32 23 17.88C22.07 15.57 19.78 13.92 17.09 13.89M22.11 21.46L20.84 22.73L19.5 21.37C18.71 21.69 17.88 21.88 17 21.88C14.27 21.88 11.94 20.22 11 17.88C11.45 16.76 12.23 15.8 13.21 15.1L11.93 13.82C11.19 14.42 10.53 15.14 10 15.97V13H4V17H9.42C9.26 17.32 9.12 17.66 9 18C9.12 18.34 9.26 18.68 9.42 19H4C2.9 19 2 18.1 2 17V5C2 4.68 2.08 4.38 2.22 4.11L1.11 3L2.39 1.73L22.11 21.46M9.11 11L5.11 7H4V11H9.11M18.18 20.07L14.81 16.7C14.61 17.05 14.5 17.45 14.5 17.88C14.5 19.26 15.62 20.38 17 20.38C17.43 20.38 17.83 20.27 18.18 20.07Z" /></svg>
